!!!OTL: Die Jagd.
!!!OTL-incipit: EI MAEDEL KOMM DU  NUR HER
!!!ARE: Europa, Mitteleuropa, Deutschland
!!!SCT: Z1253
!!!YEM: Copyright 1995, estate of Helmut Schaffrath.
**kern	**text
*ICvox	*
*M2/4	*
*k[f#]	*
*G:	*
{8g	Ei,
=1	=1
8f#	Mä-
8e	-del,
8f#	komm
8g	nur
=2	=2
4a	her,
8f#	du
8d	biſt
=3	=3
4g	mein!
8r}	.
=||	=||
{8g	Was
=4	=4
8b	bil-
8b	-deſt
8b	du,
8b	mein
=5	=5
8cc	Knab,
16ccL	dir
16bJ	.
8cc}	ein?
{8b	ich
=6	=6
8a	will
8a	ein
8a	Schwänlein
8a	.
=7	=7
4dd	wer-
8dd}	-den,
{8g	will
=8	=8
8f#	fort-
8e	-ʒiehn
8f#	von
8g	der
=9	=9
4a	Er-
8f#	-den,
8d	der
=10	=10
4g}	Teich,
{4dd	drauf
=11	=11
8b/	will
8g	ich
8f#	le-
8g	-ben
=12	=12
4a	freu-
8f#L	-den-
8dJ	.
=13	=13
4g	-reich!
8r}	.
==	==
!!!AGN: Liebes - Lied
!!!ONB: ESAC (Essen Associative Code) Database: ZUCCAL
!!!AMT: simple duple
!!!AIN: vox
!!!EED: Helmut Schaffrath
!!!EEV: 1.0
!!!GTL: V. Lieder der Minne.
!!!URL-scan: https://www.digitale-sammlungen.de/de/view/bsb11160573?page=468
!!!ENC: Anna Maria Matuszewska
!!!EEV: 2025/02/06
*-	*-
